X:066 
T:Ginley's Fancy (reel) 
T:Man of the House
B:CRE3.130 (Rogha Mhig Fhionnaile)
F:file ID: cre.3/066ginl_f
L:1/8
R:reel
Q:180
M:C
K:G
E2BE GABG|(3EGE BE ADFD|(3EGE BE GABc|1 dBBA BEED:|\
[2 dBBA BEE2||
efge fgaf|gfed (3fed Bd|efge fgaf|gfed Beed|
efge fgaf|gfed (3fed Bd|bgaf gfed|(3efe BA GEFD||

%%%

